X: 100255
T: "NEW YEAR'S DAY" STRATHSPEY
R: strathspey
B: K\"ohler's Violin Repository, v.3, 1885 p.196 #3
F: http://www.archive.org/details/klersviolinrepos03rugg
Z: 2012 John Chambers <jc:trillian.mit.edu>
N: The B in bar 15 should probably be flat, too.
M: C|
L: 1/8
K: C
ud |\
(.G>.G) (G>A) (_B>c)d<f | e<c(f>d) (e<c)f>d | G<G (G>A) (_B>c)d<^f |
(.g>.e) (f>d) c2 (cd) | G<G (G>A) (_B>c)d<f | e<c(f>d) (e<c)f>d | G<G (G>A) (_B>c)d<^f |
(g>e)f>d c2c || (ue/f/) | g>ce<g f>_Bd<f | g<c(e>c) (g>f)e>c |
(3faf (3ege f>_Bd>^f | g<e(f>d ) c2 c(e/f/) | g<ce>g f>_Bd<f |
(3gc'g (3ege (3gc'g (3ege | (3faf (3ege (3d_bd (3Bdf | ((3geg) f>d c2 "^D.C.""_Segue Reel."c |]

%%sep 2 1 500

